media/images/chapters/lessons.svg

<svg width="16" height="16" viewBox="0 0 16 16" fill="none" xmlns="http://www.w3.org/2000/svg">
<path d="M14.6667 5.95423C14.6667 5.55035 14.6667 5.34841 14.5868 5.2549C14.5175 5.17376 14.4136 5.13071 14.3072 5.13908C14.1846 5.14873 14.0418 5.29152 13.7562 5.5771L11.3333 7.99998L13.7562 10.4229C14.0418 10.7084 14.1846 10.8512 14.3072 10.8609C14.4136 10.8693 14.5175 10.8262 14.5868 10.7451C14.6667 10.6515 14.6667 10.4496 14.6667 10.0457V5.95423Z" stroke="#808080" stroke-linecap="round" stroke-linejoin="round"/>
<path d="M1.33334 6.53331C1.33334 5.41321 1.33334 4.85316 1.55132 4.42533C1.74307 4.04901 2.04903 3.74305 2.42535 3.5513C2.85318 3.33331 3.41323 3.33331 4.53334 3.33331H8.13334C9.25344 3.33331 9.81349 3.33331 10.2413 3.5513C10.6176 3.74305 10.9236 4.04901 11.1153 4.42533C11.3333 4.85316 11.3333 5.41321 11.3333 6.53331V9.46665C11.3333 10.5868 11.3333 11.1468 11.1153 11.5746C10.9236 11.951 10.6176 12.2569 10.2413 12.4487C9.81349 12.6666 9.25344 12.6666 8.13334 12.6666H4.53334C3.41323 12.6666 2.85318 12.6666 2.42535 12.4487C2.04903 12.2569 1.74307 11.951 1.55132 11.5746C1.33334 11.1468 1.33334 10.5868 1.33334 9.46665V6.53331Z" stroke="#808080" stroke-linecap="round" stroke-linejoin="round"/>
</svg>

<svg width="16" height="16" fill="none" xmlns="http://www.w3.org/2000/svg"><path d="M14.667 5.954c0-.404 0-.606-.08-.7a.333.333 0 00-.28-.115c-.122.01-.265.153-.55.438L11.332 8l2.423 2.423c.286.285.429.428.551.438a.333.333 0 00.28-.116c.08-.093.08-.295.08-.7v-4.09z" stroke="gray" stroke-linecap="round" stroke-linejoin="round"/><path d="M1.333 6.533c0-1.12 0-1.68.218-2.108a2 2 0 01.874-.874c.428-.218.988-.218 2.108-.218h3.6c1.12 0 1.68 0 2.108.218a2 2 0 01.874.874c.218.428.218.988.218 2.108v2.934c0 1.12 0 1.68-.218 2.108a2 2 0 01-.874.874c-.428.218-.988.218-2.108.218h-3.6c-1.12 0-1.68 0-2.108-.218a2 2 0 01-.874-.874c-.218-.428-.218-.988-.218-2.108V6.533z" stroke="gray" stroke-linecap="round" stroke-linejoin="round"/></svg>
